X:1
T:The Cuckoo Hornpipe
B:Allan's Irish Fiddler (pub. Mozart Allen,  Glasgow) date unknown
R:hornpipe
M:2/2
L:1/8
K:G
(d3/2c/2) | B3/2G/2D3/2G/2 c3/2A/2F3/2A/2 | d3/2^c/2d3/2e/2 d3/2B/2G3/2F/2 | E3/2d/2c3/2B/2 A3/2G/2F3/2G/2 |
 (3(ABA)  (3(GFE) D2(d3/2c/2) | B3/2G/2D3/2G/2 c3/2A/2F3/2A/2 | d3/2^c/2d3/2e/2 d3/2B/2G3/2F/2 |
E3/2d/2c3/2B/2 A3/2G/2F3/2A/2 |1 G2B2G2 :|2 G3/2A/2B3/2d/2 g2(f3/2g/2) |:
b3/2g/2f3/2g/2 d3/2g/2B3/2g/2 | b3/2g/2f3/2g/2 d3/2g/2B3/2g/2 | =c'3/2a/2^g3/2a/2e3/2a/2c3/2a/2 |
=c'3/2a/2^g3/2a/2e3/2a/2c3/2a/2 | b3/2g/2f3/2g/2 d3/2g/2B3/2g/2 | b3/2g/2f3/2g/2 d3/2g/2B3/2g/2 |
b2a2 (3(gag) f3/2g/2 |1 e3/2g/2f3/2a/2 g3/2f/2g3/2a/2 :|2 e3/2g/2f3/2a/2 g3/2e/2d3/2c/2 |]
